public/icons/healthFactor/HALHover.svg

<svg viewBox="0 0 16 16" fill="none" xmlns="http://www.w3.org/2000/svg">
<path d="M8.04931 6.28296C8.7177 6.28296 9.25952 5.74112 9.25952 5.07275C9.25952 4.40438 8.7177 3.86255 8.04931 3.86255C7.38094 3.86255 6.83911 4.40438 6.83911 5.07275C6.83911 5.74112 7.38094 6.28296 8.04931 6.28296Z" fill="#FFFEFF"/>
<path d="M0 3.25781V6.90249C0 7.36687 0.478453 7.66239 0.886544 7.47945L5.02374 5.59378C5.2489 5.49528 5.38962 5.27012 5.38962 5.01683C5.38962 4.76353 5.23484 4.53837 5.00969 4.43987L0.886544 2.66678C0.464381 2.49791 0 2.79343 0 3.25781Z" fill="url(#paint0_linear_998_855727)"/>
<path d="M16 6.90223V3.25754C16 2.79316 15.5215 2.49765 15.1134 2.68059L10.9762 4.56625C10.7511 4.66476 10.6104 4.88991 10.6104 5.14321C10.6104 5.39651 10.7651 5.62166 10.9903 5.72017L15.1275 7.49325C15.5356 7.66212 16 7.35253 16 6.90223Z" fill="url(#paint1_linear_998_855727)"/>
<path d="M9.93485 2.58214C10.3148 2.58214 10.554 2.27256 10.4415 1.90668C10.1319 0.8372 9.17496 0.0632324 8.03512 0.0632324C6.89527 0.0632324 5.93837 0.8372 5.62878 1.90668C5.51621 2.27256 5.75543 2.58214 6.13538 2.58214C7.10636 2.58214 8.97795 2.58214 9.93485 2.58214Z" fill="#FEFF3D"/>
<path d="M5.26305 8.22518L4.0247 14.9657C3.9262 15.4723 4.32022 15.9367 4.82681 15.9367H11.2578C11.7784 15.9367 12.1584 15.4723 12.0599 14.9657L10.7793 8.21111C10.709 7.81709 10.3712 7.53564 9.97721 7.53564L6.05109 7.54972C5.67114 7.54972 5.33341 7.83116 5.26305 8.22518Z" fill="#FEFF3D"/>
<defs>
<linearGradient id="paint0_linear_998_855727" x1="0" y1="5.07653" x2="5.40288" y2="5.07653" gradientUnits="userSpaceOnUse">
<stop stop-color="white" stop-opacity="0"/>
<stop offset="1" stop-color="white"/>
</linearGradient>
<linearGradient id="paint1_linear_998_855727" x1="16" y1="5.08287" x2="10.5971" y2="5.08287" gradientUnits="userSpaceOnUse">
<stop stop-color="white" stop-opacity="0"/>
<stop offset="1" stop-color="white"/>
</linearGradient>
</defs>
</svg>

<svg viewBox="0 0 16 16" fill="none" xmlns="http://www.w3.org/2000/svg"><path d="M8.05 6.283a1.21 1.21 0 1 0 0-2.42 1.21 1.21 0 0 0 0 2.42Z" fill="#FFFEFF"/><path d="M0 3.258v3.644c0 .465.478.76.887.577l4.137-1.885A.634.634 0 0 0 5.01 4.44L.887 2.667a.64.64 0 0 0-.887.59Z" fill="url(#a)"/><path d="M16 6.902V3.258a.63.63 0 0 0-.887-.577l-4.137 1.885a.633.633 0 0 0 .014 1.154l4.137 1.773a.638.638 0 0 0 .873-.59Z" fill="url(#b)"/><path d="M9.935 2.582c.38 0 .619-.31.506-.675C10.131.837 9.175.063 8.035.063c-1.14 0-2.097.774-2.406 1.844-.113.366.126.675.506.675h3.8ZM5.263 8.225l-1.238 6.74a.818.818 0 0 0 .802.972h6.43a.812.812 0 0 0 .803-.971L10.78 8.21a.814.814 0 0 0-.803-.675l-3.926.014a.811.811 0 0 0-.788.675Z" fill="#FEFF3D"/><defs><linearGradient id="a" x1="0" y1="5.077" x2="5.403" y2="5.077" gradientUnits="userSpaceOnUse"><stop stop-color="#fff" stop-opacity="0"/><stop offset="1" stop-color="#fff"/></linearGradient><linearGradient id="b" x1="16" y1="5.083" x2="10.597" y2="5.083" gradientUnits="userSpaceOnUse"><stop stop-color="#fff" stop-opacity="0"/><stop offset="1" stop-color="#fff"/></linearGradient></defs></svg>
